X:231
T:Hawthorne Hedge
P: (old page 212)
R: Jig
M:6/8
L:1/8
K:Amix
"D"A,DD FAA|d/e/fd "G"edB|"A"AFA "G"BAF|"D"dAF "G"EDB,|
"D"A,DD FAA|d/e/fd "G"edB|"A"AFA "Em"B/c/de|1"D"fdc d2d:|2"D"fdc dag||
|:"D"f3 faf|"G"edB B2d|"A"AFE "G"E3|"A"AFE "G"E2g|
"D"f3 faf|"G"edB BdB|"A"AFE "G"EDB,|1A,3 "D"Dde:|2"A"A,6||
